X:25
T:Scarce O' Tatties
C:Traditional 
M:6/8
K:HP
|:{g}A2e {A}efg | {ef}e2B {g}dBG | {g}A2e {A}efg | {a}dBG {d}A3 |!
{ag}a3 {f}g3 | {a}fgf {g}eA{d}A |  {g}Ae{A}e {A}efg | {a}dBG {d}A3 :|!
|: aeg {ag}a2f | {gf}g2f {g}eA{d}A | aeg {ag}a2f |{gf}g2f {g}e3 |!
{g}e2{A}e {g}A{d}A{e}A | {Gdc}d2f {g}fe{A}e | {g}Ae{A}e {g}efg | {a}dBG {d}A3 :|!
